src/img/search.svg

<svg width="16" height="16" viewBox="0 0 16 16" fill="none" xmlns="http://www.w3.org/2000/svg">
<circle cx="6.52174" cy="6.52174" r="5.52174" stroke="white" stroke-width="2"/>
<path d="M14.2929 15.7071C14.6834 16.0976 15.3166 16.0976 15.7071 15.7071C16.0976 15.3166 16.0976 14.6834 15.7071 14.2929L14.2929 15.7071ZM11.468 10.0538L10.7609 9.34665L9.34666 10.7609L10.0538 11.468L11.468 10.0538ZM15.7071 14.2929L11.468 10.0538L10.0538 11.468L14.2929 15.7071L15.7071 14.2929Z" fill="white"/>
</svg>

<svg xmlns="http://www.w3.org/2000/svg" width="16" height="16" fill="none"><circle cx="6.522" cy="6.522" r="5.522" stroke="#fff" stroke-width="2"/><path fill="#fff" d="M14.293 15.707a1 1 0 0 0 1.414-1.414zm-2.825-5.653-.707-.707-1.414 1.414.707.707zm4.24 4.239-4.24-4.24-1.414 1.415 4.239 4.24z"/></svg>
